src/images/popup/ring.svg

<svg width="22" height="21" viewBox="0 0 22 21" fill="none" xmlns="http://www.w3.org/2000/svg">
<path d="M18.5509 15.2143H1.57536C2.41999 14.4291 2.93191 13.4765 3.25868 12.4524C3.63894 11.2608 3.77493 9.94256 3.90399 8.69143C3.93155 8.42434 3.95879 8.1603 3.98802 7.9012C4.15854 6.38977 4.39646 5.02565 5.07126 3.93053C5.72668 2.86687 6.83113 2.00238 8.86652 1.57904L9.52003 1.44313L9.27921 0.991673C9.30714 0.936558 9.35197 0.866494 9.41412 0.795038C9.57415 0.611044 9.77676 0.49492 9.98752 0.500181C10.2081 0.505688 10.4299 0.641098 10.6012 0.837105C10.6266 0.866252 10.649 0.894609 10.6685 0.921346L10.1594 1.3673L11.1291 1.57811C13.2578 2.04088 14.3779 2.8761 15.0178 3.87122C15.675 4.89346 15.8771 6.15728 16.01 7.60168C16.0328 7.84991 16.0533 8.10321 16.0741 8.36028C16.2592 10.6457 16.4684 13.23 18.5509 15.2143Z" fill="#686868" stroke="#686868"/>
<path d="M13.5725 17.8572H6.42969C6.42969 17.8572 8.60639 20 10.0011 20C11.3958 20 13.5725 17.8572 13.5725 17.8572Z" fill="#686868" stroke="#686868" stroke-width="0.4"/>
</svg>

<svg xmlns="http://www.w3.org/2000/svg" fill="none" viewBox="0 0 22 21"><path fill="#686868" stroke="#686868" d="M18.55 15.214H1.576c.845-.785 1.357-1.738 1.684-2.762.38-1.191.516-2.51.645-3.76.028-.268.055-.532.084-.79.17-1.512.408-2.876 1.083-3.971.656-1.064 1.76-1.929 3.796-2.352l.653-.136-.24-.451a.992.992 0 0 1 .134-.197c.16-.184.363-.3.574-.295.22.006.442.141.613.337.026.03.048.058.067.084l-.509.446.97.211c2.129.463 3.249 1.298 3.889 2.293.657 1.022.86 2.286.992 3.73.023.249.043.502.064.76.185 2.285.394 4.869 2.477 6.853z"/><path fill="#686868" stroke="#686868" stroke-width=".4" d="M13.572 17.857H6.43S8.606 20 10 20s3.572-2.143 3.572-2.143z"/></svg>
